src/assets/outline/MusicSquareRemove.svg

<svg width="24" height="24" viewBox="0 0 24 24"  xmlns="http://www.w3.org/2000/svg">
<path d="M14.35 21.75H8.65C3.46 21.75 1.25 19.54 1.25 14.35V8.65002C1.25 3.46002 3.46 1.25 8.65 1.25H14.35C19.54 1.25 21.75 3.46002 21.75 8.65002V14.35C21.75 14.71 21.74 15.05 21.72 15.38C21.7 15.68 21.5 15.94 21.21 16.04C20.92 16.14 20.61 16.05 20.4 15.83C19.8 15.15 18.92 14.75 17.99 14.75C16.2 14.75 14.74 16.21 14.74 18C14.74 18.59 14.9 19.17 15.21 19.67C15.37 19.95 15.58 20.2 15.82 20.41C16.05 20.61 16.14 20.93 16.04 21.21C15.94 21.5 15.68 21.7 15.38 21.72C15.06 21.74 14.72 21.75 14.35 21.75ZM8.65 2.75C4.29 2.75 2.75 4.29002 2.75 8.65002V14.35C2.75 18.71 4.29 20.25 8.65 20.25H13.82C13.45 19.57 13.25 18.8 13.25 18C13.25 15.38 15.38 13.25 18 13.25C18.8 13.25 19.57 13.45 20.25 13.81V8.65002C20.25 4.29002 18.71 2.75 14.35 2.75H8.65Z" />
<path d="M6.72002 15.17C5.51002 15.17 4.52002 14.18 4.52002 12.97C4.52002 11.76 5.51002 10.77 6.72002 10.77C7.93002 10.77 8.92002 11.76 8.92002 12.97C8.92002 14.18 7.93002 15.17 6.72002 15.17ZM6.72002 12.27C6.34002 12.27 6.02002 12.58 6.02002 12.97C6.02002 13.35 6.33002 13.67 6.72002 13.67C7.11002 13.67 7.42002 13.36 7.42002 12.97C7.42002 12.58 7.11002 12.27 6.72002 12.27Z" />
<path d="M8.16992 13.7199C7.75992 13.7199 7.41992 13.3799 7.41992 12.9699V7.13993C7.41992 6.22993 7.98992 5.48992 8.85992 5.24992L11.7599 4.45994C12.6599 4.20994 13.2299 4.44992 13.5399 4.68992C13.8499 4.92992 14.2299 5.40994 14.2299 6.33994V11.9999C14.2299 12.4099 13.8899 12.7499 13.4799 12.7499C13.0699 12.7499 12.7299 12.4099 12.7299 11.9999V6.33994C12.7299 6.01994 12.6599 5.89992 12.6299 5.87992C12.5999 5.85992 12.4499 5.81994 12.1499 5.89994L9.25993 6.68992C8.95993 6.76992 8.91992 6.97992 8.91992 7.12992V12.9599C8.91992 13.3799 8.57992 13.7199 8.16992 13.7199Z" />
<path d="M12.0301 14.1998C10.8201 14.1998 9.83008 13.2098 9.83008 11.9998C9.83008 10.7898 10.8201 9.7998 12.0301 9.7998C13.2401 9.7998 14.2301 10.7898 14.2301 11.9998C14.2301 13.2198 13.2401 14.1998 12.0301 14.1998ZM12.0301 11.3098C11.6501 11.3098 11.3301 11.6198 11.3301 12.0098C11.3301 12.3898 11.6401 12.7098 12.0301 12.7098C12.4201 12.7098 12.7301 12.3998 12.7301 12.0098C12.7301 11.6198 12.4101 11.3098 12.0301 11.3098Z" />
<path d="M8.17006 9.58008C7.84006 9.58008 7.54006 9.36009 7.45006 9.03009C7.34006 8.63009 7.58006 8.22005 7.98006 8.11005L13.2901 6.66003C13.6901 6.56003 14.1001 6.79006 14.2101 7.19006C14.3201 7.59006 14.0801 8.00005 13.6801 8.11005L8.37006 9.56006C8.30006 9.57006 8.23006 9.58008 8.17006 9.58008Z" />
<path d="M18 22.75C16.82 22.75 15.7 22.31 14.83 21.52C14.48 21.22 14.17 20.85 13.93 20.44C13.49 19.72 13.25 18.87 13.25 18C13.25 15.38 15.38 13.25 18 13.25C19.36 13.25 20.65 13.83 21.53 14.83C22.31 15.7 22.75 16.82 22.75 18C22.75 18.87 22.51 19.72 22.06 20.45C21.22 21.87 19.66 22.75 18 22.75ZM18 14.75C16.21 14.75 14.75 16.21 14.75 18C14.75 18.59 14.91 19.17 15.22 19.67C15.38 19.95 15.59 20.2 15.83 20.41C16.43 20.96 17.2 21.26 18 21.26C19.15 21.26 20.19 20.67 20.78 19.69C21.09 19.18 21.25 18.61 21.25 18.01C21.25 17.21 20.95 16.44 20.41 15.84C19.81 15.14 18.93 14.75 18 14.75Z" />
<path d="M19.0699 19.7901C18.8799 19.7901 18.6899 19.7201 18.5399 19.5701L16.4299 17.4601C16.1399 17.1701 16.1399 16.6901 16.4299 16.4001C16.7199 16.1101 17.1999 16.1101 17.4899 16.4001L19.5999 18.5101C19.8899 18.8001 19.8899 19.2801 19.5999 19.5701C19.4499 19.7201 19.2599 19.7901 19.0699 19.7901Z" />
<path d="M16.9301 19.8199C16.7401 19.8199 16.5501 19.7499 16.4001 19.5999C16.1101 19.3099 16.1101 18.8299 16.4001 18.5399L18.5101 16.4299C18.8001 16.1399 19.2801 16.1399 19.5701 16.4299C19.8601 16.7199 19.8601 17.1999 19.5701 17.4899L17.4601 19.5999C17.3101 19.7499 17.1201 19.8199 16.9301 19.8199Z" />
</svg>

<?xml version="1.0" encoding="UTF-8"?>
<svg width="24" height="24" viewBox="0 0 24 24" xmlns="http://www.w3.org/2000/svg">
 <path d="m14.35 21.75h-5.7c-5.19 0-7.4-2.21-7.4-7.4v-5.7c0-5.19 2.21-7.4 7.4-7.4h5.7c5.19 0 7.4 2.21 7.4 7.4v5.7c0 0.36-0.01 0.7-0.03 1.03-0.02 0.3-0.22 0.56-0.51 0.66s-0.6 0.01-0.81-0.21c-0.6-0.68-1.48-1.08-2.41-1.08-1.79 0-3.25 1.46-3.25 3.25 0 0.59 0.16 1.17 0.47 1.67 0.16 0.28 0.37 0.53 0.61 0.74 0.23 0.2 0.32 0.52 0.22 0.8-0.1 0.29-0.36 0.49-0.66 0.51-0.32 0.02-0.66 0.03-1.03 0.03zm-5.7-19c-4.36 0-5.9 1.54-5.9 5.9v5.7c0 4.36 1.54 5.9 5.9 5.9h5.17c-0.37-0.68-0.57-1.45-0.57-2.25 0-2.62 2.13-4.75 4.75-4.75 0.8 0 1.57 0.2 2.25 0.56v-5.16c0-4.36-1.54-5.9-5.9-5.9h-5.7z"/>
 <path d="m6.72 15.17c-1.21 0-2.2-0.99-2.2-2.2s0.99-2.2 2.2-2.2 2.2 0.99 2.2 2.2-0.99 2.2-2.2 2.2zm0-2.9c-0.38 0-0.7 0.31-0.7 0.7 0 0.38 0.31 0.7 0.7 0.7s0.7-0.31 0.7-0.7-0.31-0.7-0.7-0.7z"/>
 <path d="m8.1699 13.72c-0.41 0-0.75-0.34-0.75-0.75v-5.83c0-0.91 0.57-1.65 1.44-1.89l2.9-0.78998c0.9-0.25 1.47-0.01002 1.78 0.22998s0.69 0.72002 0.69 1.65v5.66c0 0.41-0.34 0.75-0.75 0.75s-0.75-0.34-0.75-0.75v-5.66c0-0.32-0.07-0.44002-0.1-0.46002s-0.18-0.05998-0.48 0.02002l-2.89 0.78998c-0.3 0.08-0.34001 0.29-0.34001 0.44v5.83c0 0.42-0.34 0.76-0.75 0.76z"/>
 <path d="m12.03 14.2c-1.21 0-2.2-0.99-2.2-2.2s0.99002-2.2 2.2-2.2 2.2 0.99 2.2 2.2c0 1.22-0.99 2.2-2.2 2.2zm0-2.89c-0.38 0-0.7 0.31-0.7 0.7 0 0.38 0.31 0.7 0.7 0.7s0.7-0.31 0.7-0.7-0.32-0.7-0.7-0.7z"/>
 <path d="m8.1701 9.5801c-0.33 0-0.63-0.21999-0.72-0.54999-0.11-0.4 0.13-0.81004 0.53-0.92004l5.31-1.45c0.4-0.1 0.81 0.13003 0.92 0.53003s-0.13 0.80999-0.53 0.91999l-5.31 1.45c-0.07 0.01-0.14 0.02002-0.2 0.02002z"/>
 <path d="m18 22.75c-1.18 0-2.3-0.44-3.17-1.23-0.35-0.3-0.66-0.67-0.9-1.08-0.44-0.72-0.68-1.57-0.68-2.44 0-2.62 2.13-4.75 4.75-4.75 1.36 0 2.65 0.58 3.53 1.58 0.78 0.87 1.22 1.99 1.22 3.17 0 0.87-0.24 1.72-0.69 2.45-0.84 1.42-2.4 2.3-4.06 2.3zm0-8c-1.79 0-3.25 1.46-3.25 3.25 0 0.59 0.16 1.17 0.47 1.67 0.16 0.28 0.37 0.53 0.61 0.74 0.6 0.55 1.37 0.85 2.17 0.85 1.15 0 2.19-0.59 2.78-1.57 0.31-0.51 0.47-1.08 0.47-1.68 0-0.8-0.3-1.57-0.84-2.17-0.6-0.7-1.48-1.09-2.41-1.09z"/>
 <path d="m19.07 19.79c-0.19 0-0.38-0.07-0.53-0.22l-2.11-2.11c-0.29-0.29-0.29-0.77 0-1.06s0.77-0.29 1.06 0l2.11 2.11c0.29 0.29 0.29 0.77 0 1.06-0.15 0.15-0.34 0.22-0.53 0.22z"/>
 <path d="m16.93 19.82c-0.19 0-0.38-0.07-0.53-0.22-0.29-0.29-0.29-0.77 0-1.06l2.11-2.11c0.29-0.29 0.77-0.29 1.06 0s0.29 0.77 0 1.06l-2.11 2.11c-0.15 0.15-0.34 0.22-0.53 0.22z"/>
</svg>
